assets/images/icon-register.svg

<svg width="45" height="45" viewBox="0 0 45 45" fill="none" xmlns="http://www.w3.org/2000/svg">
<g clip-path="url(#clip0_5_22)">
<path d="M22.5 45C34.9264 45 45 34.9264 45 22.5C45 10.0736 34.9264 0 22.5 0C10.0736 0 0 10.0736 0 22.5C0 34.9264 10.0736 45 22.5 45Z" fill="#E5C295"/>
<path fill-rule="evenodd" clip-rule="evenodd" d="M33.427 16.2049H32.952C25.636 16.2049 18.32 16.2049 11.004 16.2019C10.811 16.2019 10.601 16.1889 10.427 16.1179C10.115 15.9909 9.957 15.6449 10.01 15.3179C10.06 15.0019 10.323 14.7449 10.672 14.6879C10.801 14.6669 10.935 14.6719 11.066 14.6719H21.646V13.1389C21.648 12.9789 21.644 12.8159 21.666 12.6579C21.6894 12.467 21.7852 12.2923 21.9337 12.17C22.0823 12.0477 22.2721 11.9872 22.464 12.0009C22.874 12.0189 23.191 12.3089 23.201 12.7209C23.216 13.3509 23.205 13.9829 23.205 14.6709H33.952C34.732 14.6709 35 14.9329 35 15.6939C35 19.7969 35 23.9009 34.997 28.0039C34.997 28.1729 34.988 28.3499 34.935 28.5089C34.831 28.8219 34.53 29.0069 34.2 28.9989C33.875 28.9929 33.577 28.7889 33.486 28.4779C33.4435 28.3124 33.4243 28.1418 33.429 27.9709C33.426 24.1889 33.427 20.4069 33.427 16.6249V16.2049ZM11.563 31.3999H12.078L33.864 31.4009C34.018 31.4009 34.174 31.3979 34.324 31.4209C34.734 31.4809 35.019 31.8349 34.999 32.2409C34.9913 32.4317 34.9145 32.6131 34.783 32.7515C34.6515 32.8898 34.4741 32.9756 34.284 32.9929C34.186 33.0029 34.086 32.9999 33.987 32.9999H11.014C10.254 32.9999 10 32.7439 10 31.9749V18.9549C10 18.3129 10.28 17.9849 10.806 17.9999C10.9858 17.9982 11.1599 18.0628 11.295 18.1815C11.43 18.3001 11.5166 18.4644 11.538 18.6429C11.564 18.7969 11.562 18.9559 11.562 19.1129L11.563 30.9179V31.3999Z" fill="white"/>
<path fill-rule="evenodd" clip-rule="evenodd" d="M17.985 23.52C18.78 23.563 19.479 22.92 19.527 22.102C19.5427 21.8954 19.5161 21.6877 19.449 21.4917C19.3819 21.2956 19.2756 21.1153 19.1366 20.9616C18.9976 20.8079 18.8288 20.6841 18.6405 20.5977C18.4521 20.5113 18.2482 20.4641 18.041 20.459C17.251 20.426 16.525 21.082 16.478 21.872C16.425 22.781 17.054 23.47 17.985 23.52ZM18.002 25C17.608 24.999 17.2181 24.9203 16.8546 24.7686C16.491 24.6169 16.1609 24.395 15.883 24.1157C15.6052 23.8364 15.3851 23.505 15.2353 23.1407C15.0855 22.7763 15.0089 22.386 15.01 21.992C15.0111 21.598 15.0897 21.2081 15.2414 20.8446C15.3932 20.481 15.615 20.1509 15.8943 19.873C16.1737 19.5952 16.505 19.3751 16.8693 19.2253C17.2337 19.0755 17.624 18.999 18.018 19C18.4114 19.0007 18.8009 19.079 19.1639 19.2306C19.527 19.3822 19.8565 19.604 20.1336 19.8834C20.4107 20.1627 20.6299 20.494 20.7786 20.8583C20.9273 21.2225 21.0025 21.6126 21 22.006C21.0005 22.3997 20.9233 22.7896 20.7728 23.1533C20.6223 23.5171 20.4014 23.8475 20.1228 24.1257C19.8443 24.4039 19.5136 24.6243 19.1496 24.7743C18.7857 24.9244 18.3957 25.0011 18.002 25ZM18.43 26C20.209 26.01 21.677 26.833 22.816 28.5C23.09 28.902 23.052 29.424 22.742 29.761C22.434 30.097 22.002 30.086 21.706 29.684C21.226 29.03 20.69 28.485 20.013 28.154C18.473 27.399 16.613 27.918 15.503 29.414C15.371 29.591 15.229 29.775 15.061 29.891C14.772 30.089 14.396 29.973 14.176 29.668C13.953 29.358 13.935 28.905 14.161 28.543C14.7012 27.6574 15.4827 26.9441 16.414 26.487C17.06 26.169 17.73 25.988 18.431 26.001M27.482 22.003H30.043C30.627 22.004 30.993 22.383 31 22.991C31.007 23.599 30.637 23.998 30.06 23.999C28.331 24 26.602 24.001 24.872 23.998C24.454 23.998 24.154 23.745 24.042 23.322C23.934 22.914 24.036 22.436 24.328 22.212C24.4899 22.0897 24.6853 22.0199 24.888 22.012C25.752 21.992 26.618 22.003 27.482 22.003ZM27.486 20.998C26.62 20.998 25.754 21.001 24.888 20.997C24.337 20.994 24.006 20.623 24 20.016C23.994 19.39 24.329 19.004 24.896 19.003C26.65 18.999 28.404 18.999 30.158 19.003C30.6 19.005 30.873 19.269 30.973 19.755C31.06 20.178 30.931 20.639 30.625 20.845C30.4728 20.9405 30.2967 20.9911 30.117 20.991C29.24 21.006 28.363 20.998 27.486 20.998ZM28.486 26.996C27.974 26.996 27.463 27.006 26.952 26.994C26.368 26.979 25.989 26.565 26 25.977C26.01 25.404 26.384 25.012 26.954 25.007C27.989 24.9982 29.024 24.9982 30.059 25.007C30.605 25.012 31 25.442 31 26C31 26.556 30.606 26.98 30.057 26.993C29.533 27.006 29.009 26.996 28.486 26.996Z" fill="white"/>
</g>
<defs>
<clipPath id="clip0_5_22">
<rect width="45" height="45" fill="white"/>
</clipPath>
</defs>
</svg>

<svg xmlns="http://www.w3.org/2000/svg" width="45" height="45" viewBox="0 0 45 45">
    <g fill="none" fill-rule="evenodd">
        <circle cx="22.5" cy="22.5" r="22.5" fill="#D95D1D"/>
        <g fill="#FFF">
            <path d="M33.427 16.205h-.475c-7.316 0-14.632 0-21.948-.003-.193 0-.403-.013-.577-.084-.312-.127-.47-.473-.417-.8.05-.316.313-.573.662-.63.129-.021.263-.016.394-.016h10.58v-1.533c.002-.16-.002-.323.02-.481a.75.75 0 0 1 .798-.657c.41.018.727.308.737.72.015.63.004 1.262.004 1.95h10.747c.78 0 1.048.262 1.048 1.023 0 4.103 0 8.207-.003 12.31 0 .169-.009.346-.062.505-.104.313-.405.498-.735.49-.325-.006-.623-.21-.714-.521a1.836 1.836 0 0 1-.057-.507c-.003-3.782-.002-7.564-.002-11.346v-.42zM11.563 31.4h.515l21.786.001c.154 0 .31-.003.46.02.41.06.695.414.675.82a.787.787 0 0 1-.715.752c-.098.01-.198.007-.297.007H11.014c-.76 0-1.014-.256-1.014-1.025v-13.02c0-.642.28-.97.806-.955a.73.73 0 0 1 .732.643c.026.154.024.313.024.47l.001 11.805v.482z"/>
            <path d="M17.985 23.52c.795.043 1.494-.6 1.542-1.418a1.528 1.528 0 0 0-1.486-1.643c-.79-.033-1.516.623-1.563 1.413-.053.909.576 1.598 1.507 1.648m.017 1.48a3 3 0 1 1 .016-6A2.987 2.987 0 0 1 21 22.006 2.99 2.99 0 0 1 18.002 25M18.43 26c1.779.01 3.247.833 4.386 2.5.274.402.236.924-.074 1.261-.308.336-.74.325-1.036-.077-.48-.654-1.016-1.199-1.693-1.53-1.54-.755-3.4-.236-4.51 1.26-.132.177-.274.361-.442.477-.289.198-.665.082-.885-.223-.223-.31-.241-.763-.015-1.125a5.454 5.454 0 0 1 2.253-2.056c.646-.318 1.316-.499 2.017-.486M27.482 22.003h2.561c.584.001.95.38.957.988.007.608-.363 1.007-.94 1.008-1.729.001-3.458.002-5.188-.001-.418 0-.718-.253-.83-.676-.108-.408-.006-.886.286-1.11a.993.993 0 0 1 .56-.2c.864-.02 1.73-.009 2.594-.009M27.486 20.998c-.866 0-1.732.003-2.598-.001-.551-.003-.882-.374-.888-.981-.006-.626.329-1.012.896-1.013 1.754-.004 3.508-.004 5.262 0 .442.002.715.266.815.752.087.423-.042.884-.348 1.09a.956.956 0 0 1-.508.146c-.877.015-1.754.007-2.631.007M28.486 26.996c-.512 0-1.023.01-1.534-.002-.584-.015-.963-.429-.952-1.017.01-.573.384-.965.954-.97a182.73 182.73 0 0 1 3.105 0c.546.005.941.435.941.993 0 .556-.394.98-.943.993-.524.013-1.048.003-1.571.003"/>
        </g>
    </g>
</svg>
